newicons/fddb.svg

<?xml version="1.0" encoding="UTF-8"?><svg id="a" xmlns="http://www.w3.org/2000/svg" viewBox="0 0 48 48"><defs><style>.b{fill:none;stroke:#fff;stroke-linecap:round;stroke-linejoin:round;}</style></defs><path class="b" d="M20.9503,24.5135c-.854,3.953-.67,7.9059.133,11.8599M42.973,25.9435l-21.7387,10.9289M21.2343,36.8723l-14.8718-12.7028c-1.072-.916-1.782-2.203-1.86-5.1189-.056-2.158.847-3.17,1.908-3.407M43.5,16.9236l-16.5028-5.7959L6.3155,15.6776c.7399-.1786,1.5208-.0389,2.153.385l13.0618,8.6449M21.5303,24.7075l21.9697-7.7829M43.368,25.7445l-.395.199c-1.46-2.56-.947-8.8339.527-9.0199"/></svg>

<svg xmlns="http://www.w3.org/2000/svg" xml:space="preserve" width="48" height="48"><path fill="none" stroke="#fff" stroke-linecap="round" stroke-linejoin="round" d="M20.949 24.514c-.854 3.953-.67 7.906.133 11.86m21.89-10.43L21.233 36.873m0 0L6.361 24.17c-1.072-.916-1.782-2.203-1.86-5.119-.056-2.158.847-3.17 1.908-3.407m37.09 1.28-16.503-5.796-20.682 4.55a2.72 2.72 0 0 1 2.153.385l13.062 8.645m0 0 21.97-7.783m-.132 8.82-.395.199c-1.46-2.56-.947-8.834.527-9.02"/></svg>
